src/components/00-materials/images-raw/Nutrition.svg

<svg width="96" height="96" viewBox="0 0 96 96" fill="none" xmlns="http://www.w3.org/2000/svg">
<path d="M52 55.81C53.3616 55.1345 54.5104 54.0964 55.32 52.81M58.81 81.12C56.8136 81.0248 54.8927 80.3276 53.3 79.12C51.6991 78.0559 49.8223 77.4824 47.9 77.47C45.9669 77.4718 44.0789 78.0536 42.48 79.14C40.8924 80.3331 38.9836 81.0228 37 81.12C32.42 81.12 27.29 76.33 22.93 67.98C19.13 60.71 16.57 51.98 16.57 46.25C16.57 35.39 25.82 26.56 37.2 26.56C38.87 26.56 40.7 27.25 43.94 29.1C44.942 29.6557 46.0489 29.9962 47.19 30.1C48.02 30.1 47.96 29.46 47.96 29.46C48.1142 26.8753 47.5647 24.2972 46.37 22C44.9307 19.0829 42.4984 16.7747 39.51 15.49C39.4434 15.4646 39.3881 15.4163 39.3539 15.3538C39.3196 15.2913 39.3088 15.2187 39.3232 15.1489C39.3376 15.0792 39.3764 15.0168 39.4326 14.973C39.4889 14.9292 39.5588 14.9069 39.63 14.91C39.6727 14.8998 39.7173 14.8998 39.76 14.91C42.8701 16.2585 45.4028 18.6637 46.91 21.7C48.129 24.062 48.6984 26.7056 48.56 29.36C48.5793 29.5582 48.6702 29.7427 48.8156 29.8789C48.9609 30.015 49.1509 30.0936 49.35 30.1C50.4022 29.9508 51.4187 29.6119 52.35 29.1L53.73 28.37C54.7794 27.822 55.8733 27.3637 57 27C57.7009 26.7533 58.4371 26.6216 59.18 26.61C70.18 26.61 79.41 35.61 79.41 46.3C79.41 52.04 76.84 60.78 73.03 68.03C68.66 76.33 63.47 81.12 58.81 81.12ZM39.75 52.73C40.6145 54.3144 42.0419 55.5169 43.75 56.1L39.75 52.73Z" stroke="#00008F" stroke-width="2" stroke-linecap="round" stroke-linejoin="round"/>
</svg>

<svg width="96" height="96" viewBox="0 0 96 96" fill="none" xmlns="http://www.w3.org/2000/svg"><path d="M52 55.81a8.26 8.26 0 003.32-3m3.49 28.31a9.9 9.9 0 01-5.51-2 9.87 9.87 0 00-5.4-1.65 9.66 9.66 0 00-5.42 1.67A9.93 9.93 0 0137 81.12c-4.58 0-9.71-4.79-14.07-13.14-3.8-7.27-6.36-16-6.36-21.73 0-10.86 9.25-19.69 20.63-19.69 1.67 0 3.5.69 6.74 2.54a8.24 8.24 0 003.25 1c.83 0 .77-.64.77-.64A14.32 14.32 0 0046.37 22a13.67 13.67 0 00-6.86-6.51.3.3 0 01.12-.58.28.28 0 01.13 0 14.36 14.36 0 017.15 6.79 15 15 0 011.65 7.66.82.82 0 00.79.74 8.79 8.79 0 003-1l1.38-.73A21.002 21.002 0 0157 27a6.89 6.89 0 012.18-.39c11 0 20.23 9 20.23 19.69 0 5.74-2.57 14.48-6.38 21.73-4.37 8.3-9.56 13.09-14.22 13.09zM39.75 52.73a7.21 7.21 0 004 3.37l-4-3.37z" stroke="#00008F" stroke-width="2" stroke-linecap="round" stroke-linejoin="round"/></svg>
